X:1
T:Under The Double Eagle
T:Under The Double Eagle
T:J P Sousa
T:Mimram Music
C:J P Sousa
Z:Mimram Music
L:1/8
Q:1/4=112
M:2/4
K:Eb
V:1 treble nm="Piano" snm="Pno."
V:1
 z4 | z4 | z4 | z4 | z4 | z4 | z4 | z2!f!!<(! !~(!!>!F2!<)! | !~(!.B!~)!!>!B/!>!B/ !tenuto!B2 | %9
 .B!>!B/!>!B/ !tenuto!B2 | .e!>!e/!>!e/ .e.e | .d!>!B/!>!B/ !tenuto!B2 | .g!>!g/!>!g/ !tenuto!g2 | %13
 .f.g .=a.b | .c z .d z | .B z!mf! .e z/ e/ ||"^A" (d>^c d>)c | d>^c .d.=c | (!>!B>=A) B2 | %19
 z2 (c>G) | (3A.B.d !tenuto!b2 | z3/2 !>!a/ (g>f) | (3e.G.c B2 | z2 !>!e z/ e/ |"^B\n" (d>^c d>c | %25
 d>^c) .d.c | (!>!B>=A) B2- | B2 (c>G) | (3.F.B.d !tenuto!f2 | (3.F.=A.c !tenuto!f2 | %30
 .b!>!B/!>!B/ .B.B | .B z z2 |:"^C"!mp! z !>!g/!>!g/ .g.g | z !>!g/!>!g/ .g.g | z !>!g/!>!g/ .g.g | %35
 z !>!g/!>!g/ .g.g | z !>!f/!>!f/ .f.f | z !>!f/!>!f/ .f.f | z !>!g/!>!g/ .g.g | .g z z2 | %40
"^D" z !>!g/!>!g/ .g.g | z !>!g/!>!g/ .g.g | z !>!g/!>!g/ .g.g | z !>!g/!>!g/ .g.g | z .f z .f | %45
 z .f z .f!dacoda! |1O z !>!g/!>!g/ .g.g || .g z z2 :|2 .e!>!B/!>!B/ .e!>!B/!>!B/ || %49
!<(! .e.e .f.g!<)! ||[K:Ab]"^E"!f! !>!a2 !>!f2 | !>!e2 !>!c2 | z4 | z2!mp!"^legato" (e2 | %54
"^F" f2) cf | e2 cA | E4- | E2 (Ac) | F2 E2 | A2 f2 | G4- | !breath!G2 (B2 | f2) df | e2 cA | E4- | %65
 !breath!E2 (GB) | F2 E2 | G2 e2 | c4- | c!<(!(!>!=d e)=e!<)! |"^G"!mf! f2 cf | e2 cG | E4- | %73
 E2 (Ac) | F2 E2 | A2 a2 | a4- | !breath!a.a .a.a | !tenuto!a2 !tenuto!a2 | !tenuto!g2 !tenuto!f2 | %80
 f4- | f.e .c.A | !>!E2 !>!d2 | !>!c2 !>!B2 | !~(!!>!A2 !~(!E2 | !~)!.A2 z2!D.C.! || %86
[K:Eb]"^CODA" c.f z .f |O .e!>!B/!>!B/ .e!>!B/!>!B/ | .e!f!!>!E/!>!E/ !>!E2 |] %89

